storage/app/icons/phosphoricons/light/git-pull-request-light.svg

<svg xmlns="http://www.w3.org/2000/svg" viewBox="0 0 256 256" fill="currentColor"><path d="M102,64A30,30,0,1,0,66,93.4v69.2a30,30,0,1,0,12,0V93.4A30.05,30.05,0,0,0,102,64ZM54,64A18,18,0,1,1,72,82,18,18,0,0,1,54,64ZM90,192a18,18,0,1,1-18-18A18,18,0,0,1,90,192Zm116-29.4v-52a21.88,21.88,0,0,0-6.44-15.56L158.48,54H192a6,6,0,0,0,0-12H144a6,6,0,0,0-6,6V96a6,6,0,0,0,12,0V62.48l41.07,41.08a9.91,9.91,0,0,1,2.93,7.07v52a30,30,0,1,0,12,0ZM200,210a18,18,0,1,1,18-18A18,18,0,0,1,200,210Z"/></svg>

<svg xmlns="http://www.w3.org/2000/svg" fill="currentColor" viewBox="0 0 256 256"><path d="M102 64a30 30 0 1 0-36 29.4v69.2a30 30 0 1 0 12 0V93.4A30.05 30.05 0 0 0 102 64m-48 0a18 18 0 1 1 18 18 18 18 0 0 1-18-18m36 128a18 18 0 1 1-18-18 18 18 0 0 1 18 18m116-29.4v-52a21.88 21.88 0 0 0-6.44-15.56L158.48 54H192a6 6 0 0 0 0-12h-48a6 6 0 0 0-6 6v48a6 6 0 0 0 12 0V62.48l41.07 41.08a9.9 9.9 0 0 1 2.93 7.07v52a30 30 0 1 0 12 0Zm-6 47.4a18 18 0 1 1 18-18 18 18 0 0 1-18 18"/></svg>
